!!!!SEGMENT: pl-wnifc--2227-n--001-002_mikuli-karol--grand-duo-op-26-allegro-giojoso.krn
!!!cenid: 18xx:3882
!!!COM: Mikuli, Karol
!!!COM-rismID: pe106110
!!!CDT: 1819-1897
!!!CNT:
!!!OPR: Grand Duo op. 26
!!!OTL: Allegro giojoso
!!!OMV: 002
!!!PDT:
!!!AGN:
!!!YEC: Copyright 2022 Narodowy Instytut Fryderyka Chopina (https://polishscores.org)
!!!YEM: Licence CC BY 4.0 (https://creativecommons.org/licenses/by/4.0)
!!!SMS-siglum: PL-Wnifc
!!!SMS-shelfmark: 2227/n
!!!SMS-shelfwork: 001-002 M
!!!SMS-variant:
!!!SMS-altvar:
!!!NIFC-rismSourceID: 300605262
!!!NIFC-rismChildID: 300605262
!!!NIFC-islandoraID: nifc:211849
!!!URL-pdf-islandora: https://repozytorium.nifc.pl/islandora/object/nifc%3A211849/datastream/PDF/view
!!!URL-scan: https://polish.musicsources.pl/pl/lokalizacje/galeria/druki-muzyczne/16806 @EN{Scan on Polish Music Sources Website} @PL{Skany w portalu Dziedzictwo Muzyki Polskiej w otwartym dostępie}
!!!IIIF:
!!!ONB-nifc: UWAGA: części Duetu: 1. Andante con espressione, 2. Allegro giojoso, 3. Lento quasi Fantasia, 4. Finale. Allegro appassionato
!!!AIN: 1 piano 1 violn
!!!key: A
!!!OMD:
!!!OMD-mod: Allegro gioioso
**kern	**fing	**kern	**fing	**dynam	**kern	**dynam
*part2	*	*part2	*	*	*part1	*
*staff3	*	*staff2	*	*	*staff1	*
*I"Pianoforte.	*	*I"Pianoforte.	*	*	*I"Violine.	*
*I'pf	*	*I'pf	*	*	*I'vl	*
*ICklav	*	*ICklav	*	*	*ICstr	*
*Ipiano	*	*Ipiano	*	*	*Ivioln	*
*mI"Pianoforte	*	*mI"Pianoforte	*	*	*mI"Violino	*
*clefF4	*	*clefG2	*	*	*clefG2	*
*k[f#c#g#]	*	*k[f#c#g#]	*	*	*k[f#c#g#]	*
*A:	*	*A:	*	*	*A:	*
*M6/8	*	*M6/8	*	*	*M6/8	*
=1	=1	=1	=1	=1	=1	=1
!	!	!LO:TX:a:B:t=Allegro giojoso.:mod=	!	!	!LO:TX:a:B:t=Allegro giojoso.:mod=	!
[2.AAA\ [2.EE [2.AA	.	16r	.	p	8r	.
!	!	!LO:TX:b:i:t=leggiero	!	!	!	!
.	.	(16E</LL	.	.	.	.
.	.	16A</	.	.	8cc#\L	p
.	.	16E</	.	.	.	.
.	.	16B</	.	.	8dd\J	.
.	.	16E</JJ	.	.	.	.
.	.	16c#</LL	.	.	[4.ee\	.
.	.	16A</	.	.	.	.
.	.	16E</	.	.	.	.
.	.	16C#</	.	.	.	.
.	.	16E</	.	.	.	.
.	.	16A</JJ)	.	.	.	.
=2	=2	=2	=2	=2	=2	=2
2.AAA\_ 2.EE] 2.AA_	.	(>16c#/LL	.	.	8ee\L]	<
.	.	16A</	.	.	.	.
.	.	16e/ 16gn	.	.	8cc#\	.
.	.	16A</	.	.	.	.
.	.	16d/ 16f#	.	.	8dd\J	.
.	.	16A</JJ	.	.	.	.
.	.	16c#/LL 16e	.	.	(8ee\L	.
.	.	16A</	.	.	.	.
.	.	16cn/ 16d#X	.	.	8aa\	.
.	.	16A</	.	.	.	.
.	.	16B/ 16dn	.	.	8bb\J)	[[
.	.	[<16E</JJ)	.	.	.	.
=3	=3	=3	=3	=3	=3	=3
.	.	.	.	.	16qqaa/LL	>
.	.	.	.	.	16qqbb/JJ	.
(<4.AAA\] 4.AA]	.	(>16E</LL] 16A< 16c#<	.	.	(8ccc#\L	.
.	.	16F#</	.	.	.	.
.	.	16G#X</	.	<	8bb\	.
.	.	16A</	.	.	.	.
.	.	16B</	.	.	8aa\J)	.
.	.	16c#</JJ	.	.	.	.
4BBB\ 4BB	.	16d#X/LL	.	.	(8aa\L	.
.	.	16e/	.	.	.	.
.	.	16f#/	.	.	8gg#\	.
.	.	16g#X/	.	.	.	.
8AAA\ 8AA	.	16a/	.	.	8ff#\J)	]]
.	.	16b/JJ)	.	[[	.	.
=4	=4	=4	=4	=4	=4	=4
8GGG#/L 8GG#	.	(16ee\LL	.	>	(8ee\L	.
.	.	16dd#X\	.	.	.	.
8AAA/ 8AA	.	16cc#\	.	.	8ff#\	.
.	.	16ccn\	.	.	.	.
8BBB/J 8BB	.	16b\	.	.	8dd#X\J)	.
.	.	16a\JJ	.	.	.	.
4EEE/) 4EE	.	16g#\LL	.	]	4.ee\	.
.	.	16ee\	.	.	.	.
.	.	16b\	.	.	.	.
.	.	16g#\	.	.	.	.
*clefG2	*	*	*	*	*	*
(>[8B/	.	16b\	.	.	.	.
.	.	[16ee\JJ	.	.	.	.
!!LO:LB:g=original	!	!	!	!
=5	=5	=5	=5	=5	=5	=5
*^	*	*^	*	*	*	*
8g#/L)	4.B\]	.	16bb/LL	8ee\L]	.	.	(4dd\	>
.	.	.	16b/	.	.	.	.	.
8a/	.	.	16bb/	8ff#\	.	.	.	.
.	.	.	16b/	.	.	.	.	.
8f#/J	.	.	16bb/	8dd#X\J	.	.	8a/)	.
.	.	.	16b/JJ	.	.	.	.	.
8g#/	8e\	.	16ee\LL) 16bb	4.ryy	.	<	(8g#/L	.
.	.	.	(16b\	.	.	.	.	.
8r	4ryy	.	16ee\	.	.	.	8e/	.
.	.	.	16gg#\	.	.	.	.	.
([<8b\	.	.	16bb\	.	.	.	8c#/J)	]]
.	.	.	16eee\JJ	.	.	.	.	.
*v	*v	*	*	*	*	*	*	*
*	*	*v	*v	*	*	*	*
=6	=6	=6	=6	=6	=6	=6
*	*	*8va	*	*	*	*
*^	*	*^	*	*	*	*
8gg#/L	4.b\]	.	16bbb/LL	8eee\L	.	.	(4.B/	>
.	.	.	16bb/	.	.	.	.	.
8aa/	.	.	16bbb/	8fff#\	.	.	.	.
.	.	.	16bb/	.	.	.	.	.
8ff#/J	.	.	16bbb/	8ddd#X\J	.	.	.	.
.	.	.	16bb/JJ	.	.	.	.	.
*	*ped	*	*	*	*	*	*	*
8gg#/)	8ee\	.	16eee/LL	4.ryy	.	mf	4e/)	.
.	.	.	16eeee/	.	.	.	.	.
8r	4ryy	.	16bbb/	.	.	.	.	.
.	.	.	16eee/JJ)	.	.	.	.	.
*	*	*	*X8va	*	*	*	*	*
(16ggg#\LL	.	.	8r	.	.	.	8r	]
16bb\JJ	.	.	.	.	.	.	.	.
*v	*v	*	*	*	*	*	*	*
*	*	*v	*v	*	*	*	*
=7	=7	=7	=7	=7	=7	=7
16ee\)	.	16r	.	.	(8ee\	.
16r	.	(16eee/LL	.	p	.	.
8r	.	16bb/	.	.	4gg#\)	.
.	.	16ee/JJ)	.	.	.	.
(16gg#\LL	.	8r	.	.	.	.
16b\	.	.	.	.	.	.
16e\JJ)	.	16r	.	.	(8ee\	.
16r	.	(16ee/LL	.	.	.	.
8r	.	16b/	.	.	4bb\)	.
.	.	16e/JJ)	.	.	.	.
*clefF4	*	*	*	*	*	*
!	!	!	!	!LO:HP:a:t=dimin. senza rallent.	!	!
(16g#>\LL	.	8ryy	.	>	.	.
16B\	.	.	.	.	.	.
=8	=8	=8	=8	=8	=8	=8
16E\JJ)	.	16r	.	.	(8ee\	.
8.ryy	.	(16e/LL	.	.	.	.
.	.	16B</	.	.	4eee\	.
.	.	16E</JJ)	.	.	.	.
*Xped	*	*	*	*	*	*
(16G#\LL	.	8r	.	.	.	.
16D#X\	.	.	.	.	.	.
*ped	*	*	*	*	*	*
16EE\JJ)	.	16r	.	.	4eee\)	.
8.ryy	.	(16e/LL	.	.	.	.
.	.	16B</	.	.	.	.
.	.	16E</JJ)	.	.	.	.
(16G#\LL	.	8r	.	.	8r	.
16Dn\	.	.	.	.	.	.
=9	=9	=9	=9	=9	=9	=9
*Xped	*	*	*	*	*	*
16AA\JJ) 16C# 16A	.	16r	.	.	8r	.
16r	.	(16E</LL	.	.	.	.
8r	.	16A</	.	.	8cc#\L	p
.	.	16E</	.	.	.	.
8r	.	16B</	.	.	8dd\J	.
.	.	16E</JJ	.	.	.	.
[4.AAA\ [<4.EE [<4.AA	.	16c#</LL	.	.	[4.ee\	.
.	.	16B</	.	.	.	.
.	.	16E</	.	.	.	.
.	.	16C#</	.	.	.	.
.	.	16E</	.	.	.	.
.	.	16A</JJ	.	.	.	.
=10	=10	=10	=10	=10	=10	=10
2.AAA\_ 2.EE] 2.AA_	.	16c#</LL	.	.	8ee\L]	.
.	.	16A</	.	.	.	.
.	.	16e/ 16gn	.	.	8cc#\	.
.	.	16A</	.	.	.	.
.	.	16d/ 16f#	.	.	8dd\J	.
.	.	16A</JJ	.	.	.	.
.	.	16c#/LL 16e	.	.	(8ee\L	.
.	.	16A</	.	.	.	.
.	.	16cn/ 16d#X	.	.	8aa\	.
.	.	16A</	.	.	.	.
.	.	16B/ 16dn	.	.	8bb\J)	.
.	.	[16E</JJ)	.	.	.	.
=11	=11	=11	=11	=11	=11	=11
2.AAA\] 2.AA]	.	(16E</LL] 16A< 16c#<	.	.	(8ccc#\L	.
.	.	16E#X</	2	<	.	.
.	.	16F#</	3	.	8bb\	.
.	.	16G#X</	4	.	.	.
.	.	16A</	1	.	8aa\J)	.
.	.	16B</JJ	2	.	.	.
.	.	16B#X/LL	3	.	[4.aa\	.
.	.	16c#/	4	.	.	.
.	.	16d/	1	.	.	.
.	.	16d#X/	.	.	.	.
.	.	16e/	.	.	.	.
.	.	16e#X/JJ	.	[[	.	.
!!LO:LB:g=original	!	!	!	!	!	!	!
=12	=12	=12	=12	=12	=12	=12
*^	*	*^	*	*	*	*
!	!	!	!	!	!	!	!LO:MO:mod=!LO&colon;TX&colon;i&colon;t=con calore	!
!	!	!	!	!	!	!	!LO:TX:b:i:t=con calore	!
16f#>\LL	8DD\	.	8f#/L	4.ryy	.	.	(8aa\L]	.
16A\	.	.	.	.	.	.	.	.
!	!LO:MO:mod=8ryy	!	!	!	!	!	!	!
16en>\	8r	.	8en/	.	.	.	8gg#\	.
16A\	.	.	.	.	.	.	.	.
!	!LO:MO:mod=8ryy	!	!	!	!	!	!	!
16dn>\	8r	.	8dn/J)	.	.	.	8ff#\J)	.
16A\JJ	.	.	.	.	.	.	.	.
*ped	*	*	*	*	*	*	*	*
!	!	!	!	!	!	!LO:TX:t=cre-scen-do:dur=30s:ext=ud:problem:text with extention lines	!	!
4.A#X/	(4.FF#^>\	.	(16d/LL	4d\	.	<	(4ff#\	>
.	.	.	16F#</	.	.	.	.	.
.	.	.	16E</	.	.	.	.	.
.	.	.	16F#</	.	.	.	.	.
.	.	.	16d/	8d\	.	.	8ee\)	]]
*Xped	*	*	*	*	*	*	*	*
.	.	.	16F#</JJ	.	.	.	.	.
*v	*v	*	*	*	*	*	*	*
=13	=13	=13	=13	=13	=13	=13	=13
8BB\)	.	16D</LL 16B<	4.ryy	.	.	4.dd\	.
.	.	(<16F#</)	.	.	.	.	.
8r	.	16E#X</	.	.	.	.	.
.	.	16F#</	.	.	.	.	.
8r	.	16Gn</	.	.	.	.	.
.	.	16F#</JJ)	.	.	.	.	.
*ped	*	*	*	*	*	*	*
!	!	!	!	!	!	!	!LO:TX:t=cre-scen-do:dur=3q:ext=ud:problem:text with extention lines
(<4.AA\	.	16c#/LL	4.c#\	.	.	4.ee\	<
.	.	16G</	.	.	.	.	.
.	.	16F#</	.	.	.	.	.
.	.	16G</	.	.	.	.	.
.	.	16A</	.	.	.	.	.
.	.	16G</JJ	.	.	.	.	.
=14	=14	=14	=14	=14	=14	=14	=14
*Xped	*	*	*	*	*	*	*
8D\)	.	16F#</LL 16d	4.ryy	.	.	4.ff#\	.
.	.	(16A</	.	.	.	.	.
8r	.	16G#X</	.	.	.	.	.
.	.	16A</	.	.	.	.	.
8r	.	16B</	.	.	.	.	.
.	.	16A</JJ)	.	.	.	.	.
*ped	*	*	*	*	*	*	*
!LO:SIC:o=(4.CC#\ 4.C#	!	!	!	!	!	!	!
(<<4.CC#\ 4.C#	.	(16e#X/LL	4.e#\	.	.	4.aa\	.
.	.	16A</	.	.	.	.	.
.	.	16G#</	.	.	.	.	.
.	.	16A</	.	.	.	.	.
.	.	16B</	.	.	.	.	.
.	.	16A</JJ	.	.	.	.	.
!!LO:PB:g=original	!	!	!	!	!	!	!	!
=15	=15	=15	=15	=15	=15	=15	=15
*Xped	*	*	*	*	*	*	*
!	!	!LO:TX:b:i:t=sempre:dur=12s:ext=ud:problem:text with extention lines:mod=	!	!	!	!	!
8DD\) 8D	.	16d/LL 16f#	4.ryy	.	.	(8aa\L	>
.	.	16c#/	.	.	.	.	.
8r	.	16d/	.	.	.	8gg#\	.
.	.	16en/	.	.	.	.	.
(8D\	.	16f#/	.	.	.	8ff#\J	.
.	.	16g#/JJ	.	.	.	.	.
8C#\L	.	16a/LL	8e#y\L	.	.	8ee\L	.
.	.	16a#X/	.	.	.	.	.
8D\	.	16a#/	8f#\	.	.	8dd\	.
.	.	16b/	.	.	.	.	.
16E\L	.	16an/	8d\J	.	.	8cc#\J)	]]
16E#X\JJ	.	16g#/JJ	.	.	.	.	.
=16	=16	=16	=16	=16	=16	=16	=16
8F#\L	.	16a/LL	8c#\L	.	.	(8a/L	.
.	.	16g#/	.	.	.	.	.
8D\	.	16f#/	8d\	.	.	8b/	.
.	.	16fn/	.	.	.	.	.
8En\J	.	16e/	8B\J	.	.	8g#/J)	.
.	.	16d/JJ	.	.	.	.	.
*ped	*	*	*	*	*	*	*
8AA\)	.	16A/LL) 16c#	4.ryy	.	.	[4ee\	.
.	.	(16E</	.	.	.	.	.
8r	.	16A</	.	.	.	.	.
.	.	16c#/	.	.	.	.	.
[<8E\	.	16e/	.	.	.	8ee\]	.
.	.	16a/JJ	.	.	.	.	.
=17	=17	=17	=17	=17	=17	=17	=17
*^	*	*	*	*	*	*	*
*Xped	*	*	*	*	*	*	*	*
(8c#/L	4.E\]	.	16ee/LL	8a\L	.	.	(4ee\	>]
.	.	.	16e/	.	.	.	.	.
8d/	.	.	16ee/	8b\	.	.	.	.
.	.	.	16e/	.	.	.	.	.
8B/J	.	.	16ee/	8g#\J	.	.	8dd\)	.
.	.	.	16e/JJ	.	.	.	.	.
*ped	*	*	*	*	*	*	*	*
8c#/)	8A\	.	16a/LL) 16ee	4.ryy	.	.	(8cc#/L	.
.	.	.	(16e/	.	.	.	.	.
8r	4ryy	.	16a/	.	.	.	8a/	.
.	.	.	16cc#/	.	.	.	.	.
*clefG2	*	*	*	*	*	*	*	*
[<8e\	.	.	16ee/	.	.	.	8f#/J)	.
.	.	.	16aa/JJ)	.	.	.	.	.
=18	=18	=18	=18	=18	=18	=18	=18	=18
*Xped	*	*	*	*	*	*	*	*
(8cc#/L	4.e\]	.	(16eee/LL	8aa\L	.	.	(4.e/	.
.	.	.	16ee/	.	.	.	.	.
8dd/	.	.	16eee/	8bb\	.	.	.	.
.	.	.	16ee/	.	.	.	.	.
8b/J	.	.	16eee/	8gg#\J	.	.	.	.
.	.	.	16ee/JJ	.	.	.	.	.
*ped	*	*	*	*	*	*	*	*
8cc#/)	8a\	.	16aa/LL)	16aa\	.	mf	8a/)	.
.	.	.	(16fff#/	8.ryy	.	.	.	.
8ryy	4ryy	.	16eee/	.	.	.	8r	.
.	.	.	16aa/JJ)	.	.	.	.	.
(16ccc#\LL	.	.	8r	8r	.	.	8r	.
16ee\	.	.	.	.	.	.	.	.
*v	*v	*	*	*	*	*	*	*
*	*	*v	*v	*	*	*	*
!!LO:LB:g=original	!	!	!	!	!	!	!
=19	=19	=19	=19	=19	=19	=19
16a\JJ)	.	16r	.	>	(8a/	p
16r	.	(16aa/LL	.	.	.	.
8r	.	16ee/	.	.	4cc#\)	.
.	.	16a/JJ)	.	.	.	.
(16cc#\LL	.	8r	.	.	.	.
16e\	.	.	.	.	.	.
16A\JJ)	.	16r	.	.	(8a/	.
!	!	!LO:SIC:o=(16a/LL	!	!	!	!
16r	.	(>>16a/LL	.	]	.	.
*clefF4	*	*	*	*	*	*
8r	.	16e/	.	.	4ee\)	.
.	.	16A</JJ)	.	.	.	.
(16c#\LL	.	8r	.	.	.	.
16E\JJ	.	.	.	.	.	.
=20	=20	=20	=20	=20	=20	=20
16AA\)	.	16r	.	.	(8a/	.
16r	.	(16a/LL	.	.	.	.
8r	.	16e/	.	.	4aa\	.
.	.	16A</JJ)	.	.	.	.
(16c#\LL	.	8r	.	.	.	.
16E\	.	.	.	.	.	.
16AA\JJ)	.	16r	.	.	4aa\)	.
16r	.	(16a/LL	.	.	.	.
8r	.	16e/	.	.	.	.
.	.	16A</JJ)	.	.	.	.
(16c#\LL	.	8r	.	.	8r	.
*Xped	*	*	*	*	*	*
16C#\JJ	.	.	.	.	.	.
=21	=21	=21	=21	=21	=21	=21
*ped	*	*	*	*	*	*
16EE#X\)	.	16r	.	mf	(4.ccc#\	mf
16r	.	(16g#/LL	.	.	.	.
8r	.	16c#/	.	.	.	.
.	.	16B</JJ)	.	.	.	.
(16c#\LL	.	8r	.	.	.	.
*Xped	*	*	*	*	*	*
16C#\	.	.	.	.	.	.
*ped	*	*	*	*	*	*
16FF#\JJ)	.	16r	.	.	4.cc#\)	.
16r	.	(16f#/LL	.	.	.	.
8r	.	16c#/	.	.	.	.
.	.	16A</JJ)	.	.	.	.
(16c#\LL	.	8r	.	.	.	.
*Xped	*	*	*	*	*	*
16C#\	.	.	.	.	.	.
=22	=22	=22	=22	=22	=22	=22
*ped	*	*	*	*	*	*
16GG#\JJ)	.	16r	.	.	(8cc#\L	.
16r	.	(16cc#/LL	.	.	.	.
8r	.	16g#/	.	.	8dd#X\	.
!	!	!LO:SIC:v:o=16d/JJ)	!	!	!	!
.	.	16e#JJ)	.	.	.	.
(16c#\LL	.	8r	.	.	8ee#X\J)	.
*Xped	*	*	*	*	*	*
16C#\	.	.	.	.	.	.
*ped	*	*	*	*	*	*
16AA\JJ)	.	16r	.	.	(8ff#\L	.
16r	.	(16cc#/LL	.	.	.	.
8r	.	16f#/	.	.	8gg#\	.
.	.	16A/JJ)	.	.	.	.
(16c#\LL	.	8r	.	.	8aa\J)	.
*Xped	*	*	*	*	*	*
16F#\JJ	.	.	.	.	.	.
!!LO:LB:g=original	!	!	!	!	!	!	!
=23	=23	=23	=23	=23	=23	=23
*ped	*	*	*	*	*	*
16BB\)	.	16r	.	.	(8gg#\L	.
16r	.	(16dd/LL	.	.	.	.
8r	.	16g#/	.	.	8ccc#\	.
.	.	16f#/JJ)	.	.	.	.
(16d\LL	.	8r	.	.	8bb\J)	.
*Xped	*	*	*	*	*	*
16F#\	.	.	.	.	.	.
*ped	*	*	*	*	*	*
16C#\JJ)	.	16r	.	.	(8.aa\L	.
16r	.	(16cc#/LL	.	.	.	.
8r	.	16a/	.	.	.	.
.	.	16f#/JJ)	.	.	16gg#\L	.
(16c#\LL	.	8r	.	.	16ff#\	.
*Xped	*	*	*	*	*	*
16F#\	.	.	.	.	16a\JJ)	.
=24	=24	=24	=24	=24	=24	=24
*ped	*	*	*	*	*	*
16C#\JJ)	.	16r	.	.	4.cc#\	.
!	!	!LO:SIC:o=16cc#/LL	!	!	!	!
16r	.	(16cc#/LL	.	.	.	.
8r	.	16e#X/	.	.	.	.
!	!	!LO:SIC:o=16B/JJ	!	!	!	!
.	.	16B/JJ)	.	.	.	.
(16c#\LL	.	8r	.	.	.	.
*Xped	*	*	*	*	*	*
16C#\	.	.	.	.	.	.
*ped	*	*	*	*	*	*
16FF#\JJ)	.	16r	.	.	(16dd\LL	.
16r	.	(16f#/LL	.	.	16cc#\)	.
8r	.	16c#/	.	.	(16cc#\	.
.	.	16A</JJ)	.	.	16b\	.
(16F#\LL	.	8r	.	.	16a\	.
*Xped	*	*	*	*	*	*
16C#\JJ	.	.	.	.	16g#\JJ	.
=25	=25	=25	=25	=25	=25	=25
*ped	*	*	*	*	*	*
16FF#/)	.	4.ff#\ 4.fff#	.	f	4f#/)	.
16r	.	.	.	.	.	.
16r	.	.	.	.	.	.
(16en\LL	.	.	.	.	.	.
16F#\	.	.	.	.	8r	.
*Xped	*	*	*	*	*	*
16AA#X\J	.	.	.	.	.	.
*ped	*	*	*	*	*	*
8BB\J)	.	[4.f#\ [4.ff#	.	.	4.f#/	.
16r	.	.	.	.	.	.
(16d\LL	.	.	.	.	.	.
16F#\	.	.	.	.	.	.
*Xped	*	*	*	*	*	*
16D\JJ)	.	.	.	.	.	.
=26	=26	=26	=26	=26	=26	=26
*ped	*	*	*	*	*	*
8C#/	.	8f#\L] 8ff#]	.	.	4f#/	.
16r	.	(8g#\ 8gg#	.	.	.	.
(16e\LL	.	.	.	.	.	.
16c#\	.	8a#X\J 8aa#X	.	.	8e/	.
*Xped	*	*	*	*	*	*
16F#\J	.	.	.	.	.	.
*ped	*	*	*	*	*	*
8D\J)	.	8b\L 8bb	.	.	(8d/L	.
16r	.	8cc#\ 8ccc#	.	.	8c#/	.
(16d\LL	.	.	.	.	.	.
16F#\	.	8dd\J 8ddd	.	.	8B/J)	.
*Xped	*	*	*	*	*	*
16D\	.	.	.	.	.	.
!!LO:LB:g=original	!	!	!	!	!	!	!
=27	=27	=27	=27	=27	=27	=27
.	.	8qff#/ 8qfff#	.	.	.	.
*ped	*	*	*	*	*	*
8C#\JJ)	.	8.ee\L 8.eee	.	.	(8gn/L	.
16r	.	.	.	.	8f#/	.
(16e\LL	.	16dd\K 16ddd	.	.	.	.
16B\	.	8cc#\J 8ccc#	.	.	8e/J)	.
*Xped	*	*	*	*	*	*
16Gn\J	.	.	.	.	.	.
*ped	*	*	*	*	*	*
8D\J)	.	4.b\ 4.bb	.	.	(8d/L	.
16r	.	.	.	.	8f#/	.
(16f#\LL	.	.	.	.	.	.
16B\	.	.	.	.	8b/J)	.
*Xped	*	*	*	*	*	*
16F#\J	.	.	.	.	.	.
=28	=28	=28	=28	=28	=28	=28
*ped	*	*	*	*	*	*
8D\J)	.	8.a\L 8.aa	.	.	(4.b#X\	.
16r	.	.	.	.	.	.
(16f#\LL	.	16g#\K 16gg#	.	.	.	.
*Xped	*	*	*	*	*	*
16B#X\	.	8f#\J 8ff#	.	.	.	.
*ped	*	*	*	*	*	*
16G#\JJ	.	.	.	.	.	.
16C#/LL)	.	8e#X/) 8cc#	.	.	8cc#\)	.
(16CC#/	.	.	.	.	.	.
16GG#/	.	8r	.	.	8r	.
16C#/	.	.	.	.	.	.
16E#X/	.	8r	.	.	8r	.
16G#/JJ)	.	.	.	.	.	.
=29	=29	=29	=29	=29	=29	=29
*Xped	*	*	*	*	*	*
(16c#\LL	.	(16cc#\LL	.	p	8r	.
16d\	.	16dd\	.	.	.	.
!	!	!	!	!	!LO:MO:mod=!LO&colon;TX&colon;i&colon;t=espress.	!
!	!	!	!	!	!LO:TX:b:i:t=espress.	!
16c#\	.	16cc#\	.	>	(8cc#/L	.
16Bn\	.	16b\	.	.	.	.
16A\	.	16a\	.	.	8e#X/J	.
16G#\JJ	.	16g#\JJ	.	.	.	.
16F#\LL	.	16f#/LL	.	.	8f#/L)	.
16En\	.	16en/	.	.	.	.
16D\	.	16d/	.	.	(16g#/L	.
16C#\	.	16c#/	.	.	16a/	.
16BB\	.	16B/	.	.	16bn/	.
16AA\JJ	.	16A/JJ	.	]]	16cc#/JJ)	.
=30	=30	=30	=30	=30	=30	=30
*ped	*	*	*	*	*	*
16GG#\LL	.	16G#/LL	.	.	(8.ee\L	.
16BB\	.	16B/	.	.	.	.
16F#\	.	16f#/	.	.	.	.
16G#\	.	16g#/	.	.	16dd\L)	.
16B\	.	16b/	.	.	(16dd\	.
*Xped	*	*	*	*	*	*
16f#\JJ	.	16ff#/JJ	.	.	16cc#\JJ)	.
*ped	*	*	*	*	*	*
!LO:TX:t=P:problem:mixed beam	!	!	!	!	!	!
16e#X\LL)	.	8ee#X\)	.	.	4cc#\	.
(16CC#/	.	.	.	.	.	.
16GG#/	.	8r	.	.	.	.
16C#/	.	.	.	.	.	.
16E#X/	.	8r	.	.	8r	.
16G#/JJ	.	.	.	.	.	.
!!LO:PB:g=original	!	!	!	!	!	!	!
=31	=31	=31	=31	=31	=31	=31
8c#\)	.	8r	.	.	(16cc#\LL	p
.	.	.	.	.	16dd\	.
8r	.	8cc#\L 8ccc#	.	mf	16cc#\	.
.	.	.	.	.	16b\	.
*Xped	*	*	*	*	*	*
8r	.	8e#X\J 8ee#X	.	.	16a\	.
.	.	.	.	.	16g#\JJ)	.
*ped	*	*	*	*	*	*
8AAA/ 8AA	.	8f#\L 8ff#	.	<	(16f#/LL	.
.	.	.	.	.	16e/	.
8r	.	16g#\L 16gg#	.	.	16d/	.
.	.	16a\ 16aa	.	.	16c#/	.
*Xped	*	*	*	*	*	*
8r	.	16b\ 16bb	.	.	16B/	.
.	.	16cc#\JJ 16ccc#	.	[[	16A/JJ)	.
=32	=32	=32	=32	=32	=32	=32
*	*	*^	*	*	*	*
*ped	*	*	*	*	*	*	*
8BBB/ 8BB	.	(8.een\L 8.eeen	2ryy	.	>	8G#/L	.
8r	.	.	.	.	.	(16f#/L	.
.	.	16dd\L) 16ddd	.	.	.	16g#/	.
8r	.	(16dd\ 16ddd	.	.	.	16b/	.
.	.	16cc#\JJ 16ccc#	.	.	.	16ff#/JJ	.
*Xped	*	*	*	*	*	*	*
8CC#/ 8C#	.	8cc#\) 8ccc#	.	.	.	8ee#X\)	.
*clefG2	*	*	*	*	*	*	*
4b\ 4ff#	.	(16eee/LL	[4gg#\	.	] p	8r	.
.	.	16ddd/)	.	.	.	.	.
.	.	(16ddd/	.	.	.	8r	.
.	.	16ccc#/JJ)	.	.	.	.	.
=33	=33	=33	=33	=33	=33	=33	=33
!LO:TX:a:i:t=e sempre dimin. senza ritard.\nlegatissimo:mod=sempre dimin. senza ritard.\nlegatissimo	!	!	!	!	!	!	!
8cc#\L 8ee#X	.	(16ccc#/LL	8gg#\L]	.	.	2.r	.
.	.	16bb#X/	.	.	.	.	.
8a#X\ 8een	.	16ddd/	8ggn\	.	.	.	.
.	.	16ccc#/	.	.	.	.	.
8bn\J 8dd#X	.	16bbn/	8ff#\J	.	.	.	.
.	.	16aa#X/JJ	.	.	.	.	.
8g#\L 8ddn	.	16ccc#/LL	8ffn\L	.	.	.	.
.	.	16bb/	.	.	.	.	.
(8an\ 8cc#	.	16aan/	8ee\	.	.	.	.
.	.	16gg#X/	.	.	.	.	.
8f#X\J) 8cc#	.	16bb/	[8dd#X\J	.	.	.	.
.	.	16aa/JJ	.	.	.	.	.
!!LO:LB:g=original	!	!	!	!	!	!	!	!
=34	=34	=34	=34	=34	=34	=34	=34
*^	*	*	*	*	*	*	*
8g#\L 8b#X	4.ryy	.	16gg#/LL	8dd#\L]	.	.	2.r	.
.	.	.	16ff##X/	.	.	.	.	.
8e#X\ 8bn	.	.	16aa/	8ddn\	.	.	.	.
.	.	.	16gg#/	.	.	.	.	.
8f#\J [8a	.	.	16ff#X/	8cc#\J	.	.	.	.
.	.	.	16ee#X/JJ	.	.	.	.	.
4a/]	8d#X\	.	16gg#/LL	4.b#X\	.	.	.	.
.	.	.	16ff#/	.	.	.	.	.
.	4dn\	.	16ee#/	.	.	.	.	.
.	.	.	16ff#/	.	.	.	.	.
(8g#/	.	.	16gg#/	.	.	.	.	.
.	.	.	16ee#/JJ	.	.	.	.	.
*clefF4	*	*	*	*	*	*	*	*
=35	=35	=35	=35	=35	=35	=35	=35	=35
16g#/)	16c#\	.	16ee#X/)	16cc#\	.	.	16r	.
!	!	!	!	!	!	!	!LO:MO:mod=!LO&colon;TX&colon;i&colon;t=legiero	!
!	!	!	!	!	!	!	!LO:TX:b:i:t=legiero	!
16r	2ryy	.	16r	2ryy	.	.	16cc#\LL	p
8r	.	.	8r	.	.	.	(16ccc#\	.
.	.	.	.	.	.	.	16cc#\)	.
8r	.	.	8r	.	.	.	(16ccc#\	.
.	.	.	.	.	.	.	16cc#\JJ)	.
4r	.	.	4r	.	.	.	(16ccc#\LL	.
.	.	.	.	.	.	.	16cc#\)	.
.	.	.	.	.	.	.	(16ccc#\	.
.	8.ryy	.	.	8.ryy	.	.	16cc#\)	.
8r	.	.	8r	.	.	.	(16ccc#\	.
.	.	.	.	.	.	.	16cc#\JJ)	.
*v	*v	*	*	*	*	*	*	*
*	*	*v	*v	*	*	*	*
=36	=36	=36	=36	=36	=36	=36
!LO:TX:b:t=2	!	!	!	!	!	!
*ped	*	*	*	*	*	*
2.r	.	16r	.	pp	(16ccc#\LL	>
.	.	(<16E</LL	.	.	16cc#\)	.
.	.	16en/	.	.	(16ccc#\	.
.	.	16E</	.	.	16cc#\)	.
.	.	16e/	.	.	(16ccc#\	.
.	.	16E</JJ	.	.	16cc#\JJ)	.
.	.	16e/LL	.	.	(16ccc#\LL	.
.	.	16E</	.	.	16cc#\)	.
.	.	16e/	.	.	(16ccc#\	.
.	.	16E</	.	.	16cc#\)	.
.	.	16d/	.	.	(16bb\	.
*Xped	*	*	*	*	*	*
.	.	16E</JJ	.	.	16b\JJ)	]]
=37	=37	=37	=37	=37	=37	=37
*ped	*	*	*	*	*	*
!	!	!	!	!LO:DY:a	!	!
[2.AAA\ [<2.EE [<2.AA	.	(16c#</LL)	.	p	8aa\	.
.	.	16E</	.	.	.	.
.	.	16A</	.	.	(8cc#\L	p
.	.	16E</	.	.	.	.
.	.	16B</	.	.	8dd\J	.
.	.	16E</JJ	.	.	.	.
*Xped	*	*	*	*	*	*
.	.	16c#</LL	.	.	4.ee\)	.
.	.	16A</	.	.	.	.
.	.	16E</	.	.	.	.
.	.	16C#</	.	.	.	.
.	.	16E</	.	.	.	.
.	.	16A</JJ	.	.	.	.
!!LO:LB:g=original	!	!	!	!	!	!	!
=38	=38	=38	=38	=38	=38	=38
2.AAA/_ 2.EE] 2.AA_<	.	16c#/LL	.	.	8ee\L	.
.	.	16A</	.	.	.	.
.	.	16e/ 16gn	.	.	(8cc#\	<
.	.	16A</	.	.	.	.
.	.	16d/ 16f#	.	.	8dd\J)	.
.	.	16A</JJ	.	.	.	.
.	.	16c#/LL 16e	.	.	(8ee\L	.
.	.	16A</	.	.	.	.
.	.	16cn/ 16d#X	.	.	8aa\	.
.	.	16A</	.	.	.	.
.	.	16B/ 16dn	.	.	8bb\J)	[[
.	.	16E</JJ)	.	.	.	.
=39	=39	=39	=39	=39	=39	=39
.	.	.	.	.	(>>16qqaa/LL	>
.	.	.	.	.	16qqbb/JJ	.
(4.AAA\] 4.EE 4.AA]	.	(16E</LL 16A< 16c#<	.	<	8ccc#\L	.
.	.	16F#</	.	.	.	.
.	.	16G#X</	.	.	8bb\	.
.	.	16A</	.	.	.	.
.	.	16B</	.	.	8aa\J)	.
.	.	16c#</JJ	.	.	.	.
4BBB\ 4BB	.	16d#X/LL	.	.	(8aa\L	.
.	.	16e/	.	.	.	.
.	.	16f#/	.	.	8gg#\	.
.	.	16g#X/	.	.	.	.
8AAA\ 8AA	.	16a/	.	.	8ff#\J)	]]
.	.	16b/JJ	.	[[	.	.
=40	=40	=40	=40	=40	=40	=40
8GGG#/L 8GG#	.	16ee\LL	.	>	(8ee\L	.
.	.	16dd#X\	.	.	.	.
8AAA/ 8AA	.	16cc#\	.	.	8ff#\	.
.	.	16ccn\	.	.	.	.
8BBB/J 8BB	.	16b\	.	.	8dd#X\J)	.
.	.	16a\JJ	.	.	.	.
4EEE/) 4EE	.	16g#\LL	.	.	(4.ee\	.
.	.	16ee\	.	.	.	.
.	.	16b\	.	.	.	.
.	.	16g#\	.	.	.	.
N(<8B\	.	16b\	.	.	.	.
.	.	[16ee\JJ	.	]]	.	.
*clefG2	*	*	*	*	*	*
=41	=41	=41	=41	=41	=41	=41
*^	*	*^	*	*	*	*
(>8g#/L	(4.B\N)	.	16bb/LL	8ee\L]	.	<	4b\	>
.	.	.	16b/	.	.	.	.	.
8a/	.	.	16bb/	8ff#\	.	.	.	.
.	.	.	16b/	.	.	.	.	.
8f#/J	.	.	16bb/	8dd#X\J	.	.	8a/)	.
.	.	.	16b/JJ	.	.	.	.	.
*ped	*	*	*	*	*	*	*	*
8g#/)	8e\)	.	16ee\LL) 16bb	4.ryy	.	.	(8g#/L	]
.	.	.	(16b\	.	.	.	.	.
8r	4ryy	.	16ee\	.	.	.	8e/	.
.	.	.	16gg#\	.	.	.	.	.
[<8b\	.	.	16bb\	.	.	.	8c#/J)	.
.	.	.	16eee\JJ	.	.	.	.	.
*v	*v	*	*	*	*	*	*	*
*	*	*v	*v	*	*	*	*
!!LO:LB:g=original	!	!	!	!	!	!	!
=42	=42	=42	=42	=42	=42	=42
*	*	*8va	*	*	*	*
*^	*	*^	*	*	*	*
*Xped	*	*	*	*	*	*	*	*
(8gg#/L	4b\]	.	16bbb/LL	8eee\L	.	.	(4.B/	.
.	.	.	16bb/	.	.	.	.	.
8aa/	.	.	16bbb/	8fff#\	.	.	.	.
.	.	.	16bb/	.	.	.	.	.
8ff#/J	8ryy	.	16bbb/	8ddd#X\J	.	.	.	.
.	.	.	16bb/JJ	.	.	.	.	.
*ped	*	*	*	*	*	*	*	*
8gg#/)	8ee\	.	16eee/LL)	4.ryy	.	mf	8e/)	.
.	.	.	(16eeee/	.	.	.	.	.
8r	4ryy	.	16bbb/	.	.	.	8r	.
.	.	.	16eee/JJ)	.	.	.	.	.
*	*	*	*X8va	*	*	*	*	*
(16eee\LL	.	.	8r	.	.	.	8r	.
16bb\	.	.	.	.	.	.	.	.
*v	*v	*	*	*	*	*	*	*
*	*	*v	*v	*	*	*	*
=43	=43	=43	=43	=43	=43	=43
16ee\JJ)	.	16r	.	.	(8ee\	p
16r	.	(16eee/LL	.	.	.	.
8r	.	16bb/	.	.	4gg#\)	.
.	.	16ee/JJ)	.	.	.	.
(16gg#\LL	.	8r	.	.	.	.
16b\	.	.	.	.	.	.
16e\JJ)	.	16r	.	.	(8ee\	.
16r	.	(16ee/LL	.	.	.	.
8r	.	16b/	.	.	4bb\)	.
.	.	16e/JJ)	.	.	.	.
*clefF4	*	*	*	*	*	*
!	!	!LO:MO:mod=8ree	!	!	!	!
(>>16g#>\LL	.	8r	.	.	.	.
16B\JJ	.	.	.	.	.	.
=44	=44	=44	=44	=44	=44	=44
!	!	!	!	!	!	!LO:HP:b:t=dimin. molto
16E\)	.	16r	.	.	(8ee\	>
16r	.	(16e/LL	.	.	.	.
8r	.	16B</	.	.	4eee\	.
.	.	16E</JJ)	.	.	.	.
(16E\LL	.	8r	.	.	.	.
16BB\	.	.	.	.	.	.
16EE\JJ)	.	16r	.	.	4.eee\)	.
16r	.	(16e/LL	.	.	.	.
8r	.	16B</	.	.	.	.
.	.	16E</JJ)	.	.	.	.
(16E\LL	.	8r	.	.	.	.
16EE\JJ)	.	.	.	.	.	.
=45	=45	=45	=45	=45	=45	=45
*	*	*^	*	*	*	*
*ped	*	*	*	*	*	*	*
[4.CCn\ [4.Cn	.	16r	8ryy	.	pp	4r	.
.	.	(16E</LL	.	.	.	.	.
!	!	!LO:MO:mod=!LO&colon;TX&colon;i&colon;t=una corda	!	!	!	!	!
!	!	!LO:TX:b:i:t=una corde:mod=una corda	!	!	!	!	!
.	.	16e/	8cn\	.	.	.	.
.	.	16E</	.	.	.	.	.
!	!	!LO:TX:a:i:t=poco a poco:mod=	!	!	!LO:MO:null:mod=<	!	!
.	.	16fn/	8d\	.	.	8r	.
*Xped	*	*	*	*	*	*	*
.	.	16Fn</JJ	.	.	.	.	.
*ped	*	*	*	*	*	*	*
8CC\L] 8C]	.	4.e/ 4.gn)	16r	.	.	8r	.
.	.	.	(16Gn</LL	.	.	.	.
8CC\ 8C	.	.	16cn</	.	.	(8eee\L	pp
.	.	.	16G</	.	.	.	.
8CC\J 8C	.	.	16e</	.	.	8ee\J)	.
.	.	.	16G</JJ)	.	.	.	.
!!LO:PB:g=original	!	!	!	!	!	!	!	!
=46	=46	=46	=46	=46	=46	=46	=46
*ped	*	*	*	*	*	*	*
[4.BBB\ [<4.BB	.	16r	8ryy	.	.	4r	.
!	!	!	!	!	!LO:HP:a	!	!
!	!	!	!	!	!LO:MO:null:mod=.	!	!
.	.	(>16G#X</LL	.	.	<	.	.
.	.	16g#X/	8e\	.	.	.	.
.	.	16G#</	.	.	.	.	.
.	.	16a/	8f#\	.	.	8r	.
.	.	16A</JJ	.	.	.	.	.
*Xped	*	*	*	*	*	*	*
*ped	*	*	*	*	*	*	*
8BBB\L] 8BB]	.	4.g#/) 4.b	16r	.	.	8r	.
.	.	.	(>16B\LL	.	.	.	.
8BBB\ 8BB	.	.	16e\	.	.	(8eee\L	p
.	.	.	16B\	.	.	.	.
*Xped	*	*	*	*	*	*	*
8BBB\J 8BB	.	.	16g#\	.	.	8ee\J)	.
.	.	.	16B\JJ)	.	.	.	.
=47	=47	=47	=47	=47	=47	=47	=47
*ped	*	*	*	*	*	*	*
[4.BBB-X/ [<4.BB-X	.	16r	8ryy	.	.	4r	.
!	!	!LO:TX:a:i:t=tre corde	!	!	!LO:TX:t=cre-scen-do-al:ext=ud:problem:text with extention lines:mod=	!	!
!	!	!	!	!	!LO:MO:null:mod=.	!	!
.	.	(>16cn/LL	.	.	<	.	.
.	.	16ccn/	8gn\	.	.	.	.
.	.	16c/	.	.	.	.	.
.	.	16dd/	8g\	.	.	8r	.
.	.	16d/JJ	.	.	.	.	.
*Xped	*	*	*	*	*	*	*
*ped	*	*	*	*	*	*	*
8BBB-/L] 8BB-]	.	4.cc/) 4.ee	16r	.	.	8r	.
.	.	.	(>16e\LL	.	.	.	.
!	!	!	!	!	!	!	!LO:MO:null:mod=.
8BBB-/ 8BB-	.	.	16g\	.	.	(8eee\L	p
.	.	.	16e\	.	.	.	.
*Xped	*	*	*	*	*	*	*
8BBB-/J 8BB-	.	.	16cc\	.	.	8ee\J)	.
.	.	.	16e\JJ)	.	.	.	.
=48	=48	=48	=48	=48	=48	=48	=48
*ped	*	*	*	*	*	*	*
[4.AAA/ [<4.AA	.	16r	8ryy	.	.	4r	.
.	.	16e\LL	.	.	.	.	.
.	.	16cc#X\	(>>8ee/L	.	.	.	.
.	.	16e\	.	.	.	.	.
.	.	16dd#X\	8ff#/J	.	.	8r	.
.	.	16f#\JJ	.	.	.	.	.
*Xped	*	*	*	*	*	*	*
*ped	*	*	*	*	*	*	*
8AAA/L] 8AA]	.	16rF	4.ee/) 4.ff##X	.	.	8r	.
.	.	(16f##X\LL	.	.	.	.	.
!	!	!	!	!	!	!	!LO:MO:null:mod=.
8AAA/ 8AA	.	16cc#\	.	.	.	(8eee\L	p
.	.	16f##\	.	.	.	.	.
*Xped	*	*	*	*	*	*	*
8AAA/J 8AA	.	16ee\	.	.	.	8ff##X\J)	.
.	.	16f##\JJ)	.	.	[[	.	.
*	*	*v	*v	*	*	*	*
=49	=49	=49	=49	=49	=49	=49
*ped	*	*	*	*	*	*
!	!	!	!	!	!	!LO:TX:t=cre-scen-do:ext=ud:problem:text with extention lines
4.GGG#\ 4.GG#	.	16r	.	.	4.gg#\	<
.	.	(<16G#</LL	.	f	.	.
.	.	16c#/ 16e 16g#	.	.	.	.
.	.	16g#/	.	.	.	.
.	.	16cc#/ 16ee 16gg#	.	.	.	.
.	.	16g#/JJ)	.	.	.	.
*Xped	*	*	*	*	*	*
*ped	*	*	*	*	*	*
4.GGGn\ 4.GGn	.	16r	.	.	[4.aa\	.
.	.	(<16A</LL	.	.	.	.
.	.	16c#/ 16e 16a	.	.	.	.
.	.	16a/	.	.	.	.
.	.	16cc#/ 16ee 16aa	.	.	.	.
.	.	16a/JJ)	.	.	.	.
*Xped	*	*	*	*	*	*
!!LO:LB:g=original	!	!	!	!	!	!	!
=50	=50	=50	=50	=50	=50	=50
*ped	*	*	*	*	*	*
4.FFF#/ 4.FF#	.	16r	.	.	4.aa\]	.
.	.	(<16A</LL	.	.	.	.
.	.	16d/ 16f# 16a	.	.	.	.
.	.	16a/	.	.	.	.
.	.	16dd/ 16ff# 16aa	.	.	.	.
.	.	16a/JJ)	.	.	.	.
*Xped	*	*	*	*	*	*
*ped	*	*	*	*	*	*
4AAA/ 4AA	.	16r	.	.	[4.aaa\	[ f
.	.	(<16A</LL	.	.	.	.
.	.	16c#/ 16e#X 16a	.	.	.	.
.	.	16a/	.	.	.	.
*Xped	*	*	*	*	*	*
[8A\	.	16cc#/ 16ee#X 16aa	.	.	.	.
.	.	16a/JJ)	.	.	.	.
=51	=51	=51	=51	=51	=51	=51
*^	*	*^	*	*	*	*
4.D\ 4.A]	8f#/L	.	(8aa/L	16dd\LL 16ff#	.	.	8aaa\L]	>
.	.	.	.	16a\	.	>	.	.
.	8en/	.	8gg#/	16gg#\	.	.	(8ggg#\	.
.	.	.	.	16a\	.	.	.	.
.	8d/J	.	8ff#/J	16ff#\	.	.	8fff#\J)	.
.	.	.	.	16a\JJ	.	.	.	.
4.D\	8A#X/L	.	8een/L	16ee\LL	.	.	(8eee\L	.
.	.	.	.	16gn\	.	.	.	.
.	8B/	.	8dd/	16dd\	.	.	8ddd\	.
.	.	.	.	16f#\	.	.	.	.
.	8d/J	.	8b/J	16b\	.	.	8ccc#\J)	.
.	.	.	.	16fn\JJ	.	.	.	.
=52	=52	=52	=52	=52	=52	=52	=52	=52
4.E\	8c#/L	.	8a/L	16a\LL	.	.	[4.eee\	.
.	.	.	.	16e\	.	.	.	.
.	8d/	.	8b/	16b\	.	]	.	.
.	.	.	.	16f#X\	.	.	.	.
.	8B/J	.	8g#/J	16g#\	.	.	.	.
.	.	.	.	16d\JJ	.	.	.	.
8A\	4.ryy	.	8a/)	(>16c#\LL	.	.	8eee\L]	.
.	.	.	.	16e\	.	.	.	.
8r	.	.	8r	16c#\	.	.	(8ccc#\	]
.	.	.	.	16e\	.	.	.	.
[8E\	.	.	8r	16a\	.	.	8aa\J)	.
.	.	.	.	16cc#\JJ	.	.	.	.
=53	=53	=53	=53	=53	=53	=53	=53	=53
4.E\]	(>8c#/L	.	16ee/LL	8a\L	.	.	[4.ee\	.
.	.	.	16e/	.	.	.	.	.
.	8d/	.	16ee/	8b\	.	.	.	.
.	.	.	16e/	.	.	.	.	.
.	8B/J	.	16ee/	8g#\J	.	.	.	.
.	.	.	16e/JJ	.	.	.	.	.
*ped	*	*	*	*	*	*	*	*
8A\	8c#/)	.	16ee/LL)	8a\	.	.	8ee\L]	.
.	.	.	(16e/	.	.	.	.	.
8r	8ryy	.	16a/	4ryy	.	.	(8cc#\	.
!	!	!	!	!	!	!LO:TX:t=cre-scen-do:dur=16s:ext=ud:problem:text with extention lines	!	!
.	.	.	16cc#/	.	.	<	.	.
*clefG2	*	*	*	*	*	*	*	*
[<8e\	8raa	.	16ee/	.	.	.	8a\J)	.
.	.	.	[>16aa/JJ	.	.	.	.	.
!!LO:LB:g=original	!	!	!	!	!	!	!	!	!
=54	=54	=54	=54	=54	=54	=54	=54	=54
*Xped	*	*	*	*	*	*	*	*
4.e\]	(8cc#/L	.	16eee/LL	8aa\L]	.	.	(4.e/	.
.	.	.	16ee/	.	.	.	.	.
.	8dd/	.	16bb/	8bb\	.	.	.	.
.	.	.	16ee/	.	.	.	.	.
.	8b/J	.	16gg#/	8gg#\J	.	.	.	.
.	.	.	16ee/JJ	.	.	.	.	.
8a\	8cc#/)	.	16eee/LL)	4aa\	.	.	4ee\)	.
*	*	*	*8va	*	*	*	*	*
.	.	.	(<16ee/	.	.	.	.	.
8r	4ryy	.	16aa/	.	.	.	.	.
.	.	.	16ccc#/	.	.	.	.	.
[8ee\	.	.	16eee/	8ryy	.	.	8ee\	.
.	.	.	[16aaa/JJ)	.	.	.	.	.
=55	=55	=55	=55	=55	=55	=55	=55	=55
2.ee\]	(>8ccc#/L	.	16eeee/LL	8aaa\L]	.	.	(4.ee\	.
.	.	.	16eee/	.	.	.	.	.
.	8ddd/	.	16eeee/	8bbb\	.	.	.	.
.	.	.	16eee/	.	.	.	.	.
.	8bb/J	.	16eeee/	8ggg#\J	.	.	.	.
.	.	.	16eee/JJ	.	.	.	.	.
.	8ccc#/L	.	16eeee/LL	8aaa\L	.	.	4eee\)	.
.	.	.	16eee/	.	.	.	.	.
.	8ddd/	.	16eeee/	8bbb\	.	.	.	.
.	.	.	16eee/	.	.	.	.	.
.	8bb/J	.	16eeee/	8ggg#\J	.	.	(8eee\	.
.	.	.	16eee/JJ	.	.	.	.	.
*	*	*	*v	*v	*	*	*	*
=56	=56	=56	=56	=56	=56	=56	=56
4aa\	4ccc#/)	.	16aaa\LL	.	<	4.aa\)	.
.	.	.	16aaa#X\	.	.	.	.
.	.	.	16bbb\	.	.	.	.
.	.	.	16bbb#X\	.	.	.	.
8r	2ryy	.	16cccc#\	.	.	.	.
.	.	.	16dddd\JJ	.	.	.	.
4r	.	.	16dddd#X\LL	.	.	4r	.
.	.	.	16eeee\	.	.	.	.
.	.	.	16eeee#X\	.	.	.	.
.	.	.	16ffff#\	.	.	.	.
8r	.	.	16ffff##X\	.	.	8r	.
.	.	.	16gggg#\JJ	.	[[	.	.
*v	*v	*	*	*	*	*	*
*clefF4	*	*	*	*	*	*
=57	=57	=57	=57	=57	=57	=57
*ped	*	*	*	*	*	*
8GG#/ 8F#	.	16aaaan\LL	5	sfz >	(4.a/	p
.	.	16gggg#\	.	.	.	.
8F#\L	.	16ffff#X\	.	.	.	.
.	.	16dddd#X\	.	.	.	.
[<8B\J	.	16aaa\	.	.	.	.
.	.	16ggg#\JJ	.	.	.	.
*	*	*X8va	*	*	*	*
4B\] 4d#X 4a	.	16fff#\LL	.	.	4aa\)	.
.	.	16ddd#X\	.	.	.	.
.	.	16aa\	1	.	.	.
.	.	16ccc#\	3	.	.	.
*Xped	*	*	*	*	*	*
8r	.	16bb\	.	.	8r	.
.	.	16aa\JJ	.	]]	.	.
!!LO:LB:g=original	!	!	!	!	!	!	!
=58	=58	=58	=58	=58	=58	=58
*ped	*	*8va	*	*	*	*
!	!	!	!	!	!	!LO:MO:null:mod=.
8FFn/ 8Fn	.	(16aaaa\LL	.	sf >	(4.a/	p
.	.	16ggggn\	.	.	.	.
8F\L	.	16ffffn\	.	.	.	.
.	.	16ddddn\	.	.	.	.
([<8A\J	.	16aaa\	1	.	.	.
.	.	16gggn\JJ	4	.	.	.
*	*	*X8va	*	*	*	*
4A\]) 4dn 4a	.	16fff#\LL	.	.	4aa\)	.
.	.	16ddd\	.	.	.	.
.	.	16aa\	1	.	.	.
.	.	16cccn\	3	.	.	.
*Xped	*	*	*	*	*	*
8r	.	16bb\	.	.	8r	.
.	.	16aa\JJ	.	]]	.	.
=59	=59	=59	=59	=59	=59	=59
*ped	*	*8va	*	*	*	*
!	!	!	!	!	!LO:TX:a:i:t=ten.	!
8EE/ 8E	.	16aaaa\LL	5	>	2.A/	.
.	.	16ffff#X\	4	.	.	.
(8E\L	.	16eeee\	.	.	.	.
.	.	16cccc#X\	.	.	.	.
*Xped	*	*	*	*	*	*
8A\J) 8c# 8a	.	16aaa\	1	.	.	.
.	.	16eee\JJ	2	.	.	.
*ped	*	*X8va	*	*	*	*
8DD\L 8D	.	16ggg#\LL	4	.	.	.
.	.	16fff#\	.	.	.	.
(8F#\	.	16ddd\	.	.	.	.
.	.	16aa\	1	.	.	.
*Xped	*	*	*	*	*	*
8A\J) 8d 8a	.	16gg#\	3	.	.	.
.	.	16ff#\JJ	.	.	.	.
=60	=60	=60	=60	=60	=60	=60
*	*	*	*	*^	*	*
!	!	!	!	!	!	!LO:TX:a:i:t=ten.	!LO:MO:mod=!null:null
!	!	!	!	!	!	!	!LO:HP:t=dimin.
!	!	!	!	!	!LO:DY:b	!	!
*ped	*	*	*	*	*	*	*
!	!	!	!	!	!LO:MO:null:mod=.	!	!
8AAA/	.	16ee\LL	1	.	p	2.a/	>
!	!	!	!	!	!LO:MO:mod=!null:null	!	!
!	!	!	!	!	!LO:HP:b:t=dimin.	!	!
!	!	!	!	!	!LO:MO:null:mod=.	!	!
.	.	16eee\	.	.	>	.	.
8r	.	16ccc#\	.	.	.	.	.
.	.	16aa\	.	.	.	.	.
8r	.	16ee\	1	.	.	.	.
.	.	16cc#\JJ	2	.	.	.	.
4AA\ 4E 4c#	.	16ff#\LL	5	.	.	.	.
.	.	16ee\	.	.	.	.	.
.	.	16cc#\	.	.	.	.	.
.	.	16a\	1	.	.	.	.
8r	.	16f#\	3	.	.	.	.
.	.	[16e\JJ	2	]]	.	.	.
*	*	*	*	*v	*v	*	*
=61	=61	=61	=61	=61	=61	=61
[2.AAA/ [<2.AA	.	[2.c#/) 2.e_ [<2.a [2.cc#	.	p	(8a/	p
.	.	.	.	.	4cc#\)	.
.	.	.	.	.	(8a/	.
.	.	.	.	.	4ee\)	.
=62	=62	=62	=62	=62	=62	=62
4.AAA/] 4.AA]	.	4.c#/] 4.e] 4.a] 4.cc#]	.	.	(8a/	.
.	.	.	.	.	4aa\	.
*Xped	*	*	*	*	*	*
!	!	!	!	!	!LO:MO:mod=!null:null	!
!	!	!	!	!	!LO:N:vis=4.	!
4AA\ 4E 4c#	.	4a\ 4ee 4aa	.	pp	4aa;\)	pp
8r;	.	8r;	.	.	8r	.
==	==	==	==	==	==	==
*-	*-	*-	*-	*-	*-	*-
!!!system-decoration: s1{(s2,s3)}
!!!RDF**kern: > = above
!!!RDF**kern: < = below
!!!RDF**kern: N = linked
!!!filter-modern: sic -sq | shed -e "s/TX(.*):t=P:/tx$1:t=P:/LG" | shed -e "s/:rj/:RJ/L" | shed -k -e "s/([^a-gA-Gn#X-])[<>]/$1/g" | shed -e "s/LO:DY:(a|b|rj)/LO:dy:$1/L" | shed -e "s/-//B" | autostem -r | modori -m
!!!ENC: Filip Voros
!!!END: 2022-07-24
!!!EED: Jan Barakat
!!!EEV: 2022-08-15
!!!ENC-modern: Andrzej Borzym
!!!END-modern: 2022-08-29
